src/images/shorts.svg

<svg fill="none" height="32" viewBox="0 0 38 32" width="38" xmlns="http://www.w3.org/2000/svg"><g fill="#54656f"><path d="m34 0h-30c-2.2 0-4 1.8-4 4v24c0 2.2 1.8 4 4 4h30c2.2 0 4-1.8 4-4v-24c0-2.2-1.8-4-4-4zm-25.6 7v6h-6.4v-6zm0 12v5h-6.4v-5zm2-17h18v28h-18zm20 22v-5h5.6v5zm0-11v-6h5.6v6z"/><path d="m22.9 15.1-5.2-3.1c-.7-.4-1.5.1-1.5.9v6.2c0 .8.8 1.3 1.5.9l5.2-3.1c.7-.4.7-1.4 0-1.8z"/></g></svg>

<svg width="38" height="32" viewBox="0 0 38 32" fill="none" xmlns="http://www.w3.org/2000/svg">
<path d="M34 0H4C1.8 0 0 1.8 0 4V28C0 30.2 1.8 32 4 32H34C36.2 32 38 30.2 38 28V4C38 1.8 36.2 0 34 0ZM8.4 7V13H2V7H8.4ZM8.4 19V24H2V19H8.4ZM10.4 2H28.4V30H10.4V2ZM30.4 24V19H36V24H30.4ZM30.4 13V7H36V13H30.4Z" fill="#54656F"/>
<path d="M22.9 15.1L17.7 12C17 11.6 16.2 12.1 16.2 12.9V19.1C16.2 19.9 17 20.4 17.7 20L22.9 16.9C23.6 16.5 23.6 15.5 22.9 15.1Z" fill="#54656F"/>
</svg>
